.local/share/icons/Gruvbox-Plus-Dark/panel/16/qbittorrent-tray.svg

<svg xmlns="http://www.w3.org/2000/svg" width="16" height="16" version="1">
 <defs>
  <style id="current-color-scheme" type="text/css">
   .ColorScheme-Text { color:#ebdbb2; } .ColorScheme-Highlight { color:#458588; }
  </style>
 </defs>
 <path style="fill:currentColor" class="ColorScheme-Text" d="M 9,1 C 8.446,1 8,1.446 8,2 l 0,6 0,3 c 0,0.554 0.446,1 1,1 0.554,0 1,-0.446 1,-1 l 0,-0.173828 C 10.321041,10.940492 10.659213,10.999276 11,11 12.656854,11 14,9.6568542 14,8 14,6.3431458 12.656854,5 11,5 10.6591,5.00135 10.320925,5.060796 10,5.1757812 L 10,2 C 10,1.446 9.554,1 9,1 Z M 6,4 C 5.446,4 5,4.446 5,5 L 5,5.1738281 C 4.6789593,5.059508 4.3407869,5.0007242 4,5 2.3431458,5 1,6.3431458 1,8 1,9.656854 2.3431458,11 4,11 4.3408996,10.9986 4.6790752,10.9392 5,10.824219 L 5,14 c 0,0.554 0.446,1 1,1 0.554,0 1,-0.446 1,-1 L 7,8 7,5 C 7,4.446 6.554,4 6,4 Z m 4,3 1,0 1,0 0,1 0,1 -1,0 -1,0 0,-1 z M 3,7 4,7 5,7 5,8 5,9 4,9 3,9 3,8 Z"/>
</svg>

<svg width="16" height="16" version="1.1" xmlns="http://www.w3.org/2000/svg">
  <defs>
    <style id="current-color-scheme" type="text/css">.ColorScheme-Text { color:#ebdbb2; } .ColorScheme-Highlight { color:#458588; } .ColorScheme-NeutralText { color:#fe8019; } .ColorScheme-PositiveText { color:#689d6a; } .ColorScheme-NegativeText { color:#fb4934; }</style>
  </defs>
  <path class="ColorScheme-Text" d="m9 1c-0.554 0-1 0.446-1 1v9c0 0.554 0.446 1 1 1s1-0.446 1-1v-0.174c0.321 0.114 0.659 0.173 1 0.174 1.657 0 3-1.343 3-3s-1.343-3-3-3c-0.341 0.0014-0.679 0.0608-1 0.1758v-3.176c0-0.554-0.446-1-1-1zm1 6h2v2h-2z" fill="currentColor"/>
  <path class="ColorScheme-Text" d="m6 4c-0.554 0-1 0.446-1 1v0.1738c-0.321-0.1143-0.6592-0.1731-1-0.1738-1.657 0-3 1.343-3 3s1.343 3 3 3c0.3409-1e-3 0.6791-0.061 1-0.176v3.176c0 0.554 0.446 1 1 1s1-0.446 1-1v-9c0-0.554-0.446-1-1-1zm-3 3h2v2h-2z" fill="currentColor" opacity=".3"/>
</svg>
